package/converter/svg/light/chart-line.svg

<svg xmlns="http://www.w3.org/2000/svg" viewBox="0 0 512 512"><!-- Font Awesome Pro 6.0.0-alpha2 by @fontawesome - https://fontawesome.com License - https://fontawesome.com/license (Commercial License) --><path d="M123.328 315.328L224 214.625L308.672 299.297C314.92 305.545 325.047 305.545 331.295 299.299L475.312 155.311C481.562 149.062 481.562 138.934 475.314 132.686S458.937 126.437 452.691 132.686L320 265.375L235.33 180.674C229.107 174.449 218.926 174.449 212.703 180.672L100.703 292.672C94.469 298.906 94.469 309.062 100.703 315.297C106.938 321.562 117.062 321.562 123.328 315.328ZM496 448H80C53.531 448 32 426.469 32 400V48C32 39.172 24.828 32 16 32S0 39.172 0 48V400C0 444.125 35.875 480 80 480H496C504.828 480 512 472.828 512 464S504.828 448 496 448Z"/></svg>

<svg xmlns="http://www.w3.org/2000/svg" viewBox="0 0 512 512"><!--! Font Awesome Pro 6.6.0 by @fontawesome - https://fontawesome.com License - https://fontawesome.com/license (Commercial License) Copyright 2024 Fonticons, Inc. --><path d="M32 48c0-8.8-7.2-16-16-16S0 39.2 0 48L0 400c0 44.2 35.8 80 80 80l416 0c8.8 0 16-7.2 16-16s-7.2-16-16-16L80 448c-26.5 0-48-21.5-48-48L32 48zM475.3 155.3c6.2-6.2 6.2-16.4 0-22.6s-16.4-6.2-22.6 0L320 265.4l-84.7-84.7c-6.2-6.2-16.4-6.2-22.6 0l-112 112c-6.2 6.2-6.2 16.4 0 22.6s16.4 6.2 22.6 0L224 214.6l84.7 84.7c6.2 6.2 16.4 6.2 22.6 0l144-144z"/></svg>
